X:19
T:Mug of Brown Ale, The      Jig     Allans #19
C:Trad/Anon.
B:Allan's Irish Fiddler (pub. Mozart Allen,  Glascow) date unknown
Z:FROM ALLAN'S TO NOTEWORTHY, FROM NOTEWORTHY TO ABC, MIDI AND .TXT BY VINCE
BRENNAN Dec. 2002 (HTTP://WWW.SOSYOURMOM.COM)
I:abc2nwc
M:6/8
L:1/8
K:G
G|EAA ABd|edBc2A|BGG dGG|Bdc BAG|
EAA Acd|edea2g|edc Bcd|ecA A2:|
|:f|gefg2a|gef g2(d/2c/2)|BGG dGG|Bdc BAG|
[1gefg2a|gefg2d|edc Bcd|ecA A2:|
[2EAA Acd|edea2e|edc Bcd|ecA A2|]
